X: 1
T: The Frost Is All Over
R: jig
M: 6/8
L: 1/8
K: Dmaj
|def edB | AFD E2D | FAA AFA | Bcd ecA |
def edB | AFD E2D | FAA AFA | Bdc d2 :|
|: f2f afd | g2g bag | f2f afd | gfg efg |
f2f afd | g2g bag | ~f3 ede | fdc d2 :|
